X: 33405
T: Quiet Road, The
R: jig
M: 6/8
K: Dmajor
D|:DFA dAF|dAF BGE|DFA dAF|BGE EFE|
DFA dAF|dAF BGE|DFA dAF|1 A,^CE D2D:|2 A,^CE DFA||
|:fdB AFA|DFA dAF|fdB AFA|Bee efe|
fdB AFA|DFA dAF|dgf afd|1 Ace d2e:|2 Ace [d3F3]||

